!!!!SEGMENT: Ric2025-Veni_electa_mea
!!!id: Ric2025
!!!AGN: Motet
!!!voices: 6
!!!COM: Jean Richafort
!!!OTL: Veni, electa mea
**kern	**kern	**kern	**kern	**kern	**kern
*part6	*part5	*part4	*part3	*part2	*part1
*staff6	*staff5	*staff4	*staff3	*staff2	*staff1
*I"Bassus	*I"Tenor II	*I"Tenor I	*I"Altus	*I"Superius II	*I"Superius I
*I'B.	*I'T. II	*I'T. I	*I'A.	*I'S. II	*I'S. I
*clefF4	*clefGv2	*clefGv2	*clefGv2	*clefGv2	*clefG2
*k[]	*k[]	*k[]	*k[]	*k[]	*k[]
*M3/1	*M3/1	*M3/1	*M3/1	*M3/1	*M3/1
*met(O)	*met(O)	*met(O)	*met(O)	*met(O)	*met(O)
=1	=1	=1	=1	=1	=1
!!section: Prima pars: Veni, electa mea
!!!OMD: Prima pars: Veni, electa mea
0.r	0.r	2.C	0.r	0.r	0.r
.	.	4D	.	.	.
.	.	4E	.	.	.
.	.	4F	.	.	.
.	.	2G	.	.	.
.	.	2C	.	.	.
.	.	2G	.	.	.
=2	=2	=2	=2	=2	=2
2.AA	0.r	2A	0.r	0.r	0.r
.	.	1c	.	.	.
4BB	.	.	.	.	.
4C	.	.	.	.	.
4D	.	.	.	.	.
2E	.	2B	.	.	.
2AA	.	2A	.	.	.
2E	.	2G	.	.	.
=3	=3	=3	=3	=3	=3
2F	0.r	1F	0.r	2.A	0.r
1A	.	.	.	.	.
.	.	.	.	4B	.
.	.	1E	.	4c	.
.	.	.	.	4d	.
2G	.	.	.	2e	.
2F	.	1c	.	2A	.
2E	.	.	.	2e	.
=4	=4	=4	=4	=4	=4
1D	2.F	2d	0.r	2f	0.r
.	.	2f	.	1a	.
.	4G	.	.	.	.
1C	4A	1e	.	.	.
.	4B	.	.	.	.
.	2c	.	.	2g	.
2D	2F	1A	.	2f	.
2C	4c	.	.	2e	.
.	4r	.	.	.	.
=5	=5	=5	=5	=5	=5
1BB	2d	2.D	0.r	1d	0.r
.	1f	.	.	.	.
.	.	4E	.	.	.
1AA	.	4F	.	2.c	.
.	.	4G	.	.	.
.	2e	2A	.	.	.
.	.	.	.	4B	.
1r	2d	2D	.	2A	.
.	2c	2A	.	4G	.
.	.	.	.	4F	.
=6	=6	=6	=6	=6	=6
2r	1B	2B	0.r	2G	2.d
2.D	.	1d	.	2F	.
.	.	.	.	.	4e
.	1A	.	.	1r	4f
4E	.	.	.	.	4g
2F	.	2c	.	.	2a
2G	2r	2B	.	2r	2d
2D	2d	2A	.	2f	2a
=7	=7	=7	=7	=7	=7
2r	0d	2.G	0.G	1.g	2b
2.GG	.	.	.	.	2.dd
.	.	8FL	.	.	.
.	.	8EJ	.	.	.
.	.	1D	.	.	.
4AA	.	.	.	.	4cc
2BB	.	.	.	2f	4b
.	.	.	.	.	4a
2C	2r	2r	.	2e	1g
2GG	2d	2D	.	2d	.
=8	=8	=8	=8	=8	=8
1.D	2.d	1.F	0.A	2r	2f
.	.	.	.	2d	2d
.	8cL	.	.	.	.
.	8BJ	.	.	.	.
.	2A	.	.	2.f	1dd
4C	2B	4E	.	.	.
4BB	.	4D	.	4g	.
1AA	1c	2E	.	1a	1cc
.	.	2C	.	.	.
=9	=9	=9	=9	=9	=9
0.GG	0d	0G	0.B	2r	2b
.	.	.	.	2d	4dd
.	.	.	.	.	4cc
.	.	.	.	2.g	4b
.	.	.	.	.	4a
.	.	.	.	.	1a
.	.	.	.	4f	.
.	1r	1G	.	2d	.
.	.	.	.	2e	2g
=10	=10	=10	=10	=10	=10
2r	0d	1F	0A	0f	0.a
2D	.	.	.	.	.
2.F	.	1D	.	.	.
4G	.	.	.	.	.
1A	1c	1r	1r	1e	.
=11	=11	=11	=11	=11	=11
2D	2A	0.r	1r	2r	2r
2AA	1c	.	.	2e	2cc
2.C	.	.	0G	2.e	2cc
.	4B	.	.	.	2cc
4D	4A	.	.	4f	.
1E	4G	.	.	2.g	1b
.	4F	.	.	.	.
.	4E	.	.	.	.
.	4D	.	.	4f	.
=12	=12	=12	=12	=12	=12
0.AA	1E	2r	0A	4e	0a
.	.	.	.	4d	.
.	.	2A	.	2f	.
.	2r	2.c	.	4e	.
.	.	.	.	4d	.
.	2E	.	.	4c	.
.	.	4d	.	4B	.
.	2.E	1e	1A	1c	1r
.	8DL	.	.	.	.
.	8EJ	.	.	.	.
=13	=13	=13	=13	=13	=13
2r	2F	1A	1.c	2r	2r
2AA	1E	.	.	2e	2cc
2.C	.	1E	.	2.e	2cc
.	2.G	.	2B	.	2cc
4D	.	.	.	4f	.
1E	.	1r	1G	2.g	1b
.	4A	.	.	.	.
.	2B	.	.	.	.
.	.	.	.	4f	.
=14	=14	=14	=14	=14	=14
2AA	2c	2r	1A	4e	[0.a
.	.	.	.	4d	.
2.D	2d	2D	.	2.f	.
.	1D	2F	2A	.	.
4C	.	.	.	4e	.
2BB	.	2G	2B	1d	.
1AA	1E	1A	1c	.	.
.	.	.	.	2c	.
=15	=15	=15	=15	=15	=15
2r	1D	0.F	0A	0d	0.a]
2D	.	.	.	.	.
4D	2r	.	.	.	.
4C	.	.	.	.	.
4D	2A	.	.	.	.
4E	.	.	.	.	.
2F	4A	.	1r	1r	.
.	4G	.	.	.	.
2D	4A	.	.	.	.
.	4B	.	.	.	.
=16	=16	=16	=16	=16	=16
2E	1c	2r	0.r	0.r	0.r
1F	.	2A	.	.	.
.	1d	4A	.	.	.
.	.	4G	.	.	.
4E	.	4A	.	.	.
4D	.	4B	.	.	.
4C	1e	2.c	.	.	.
4D	.	.	.	.	.
4E	.	.	.	.	.
4F	.	4A	.	.	.
=17	=17	=17	=17	=17	=17
1G	1d	4B	0.r	1r	0.r
.	.	4c	.	.	.
.	.	1d	.	.	.
2.F	1.f	.	.	2r	.
.	.	2c	.	2A	.
4E	.	.	.	.	.
1D	.	1d	.	4A	.
.	.	.	.	4G	.
.	4e	.	.	4A	.
.	4d	.	.	4B	.
=18	=18	=18	=18	=18	=18
0C	1e	1G	1r	1.c	2r
.	.	.	.	.	2e
.	1E	1r	0G	.	4e
.	.	.	.	.	4d
.	.	.	.	4B	4e
.	.	.	.	4A	4f
1E	1r	1r	.	2B	2.g
.	.	.	.	2c	.
.	.	.	.	.	4e
=19	=19	=19	=19	=19	=19
1.D	0.r	0.r	0A	1.d	4f
.	.	.	.	.	4g
.	.	.	.	.	2a
.	.	.	.	.	2f
2C	.	.	.	1e	2.a
1AA	.	.	1c	.	.
.	.	.	.	.	4g
.	.	.	.	4d	2e
.	.	.	.	4c	.
=20	=20	=20	=20	=20	=20
0.r	0.r	0.r	2d	2B	2f
.	.	.	2.e	2G	2.g
.	.	.	.	1c	.
.	.	.	4d	.	4f
.	.	.	1c	.	2e
.	.	.	.	1G	1d
.	.	.	2B	.	.
=21	=21	=21	=21	=21	=21
1r	0.r	2r	[0.c	1r	0.c
.	.	2A	.	.	.
1r	.	4A	.	2r	.
.	.	4G	.	.	.
.	.	4A	.	2A	.
.	.	4B	.	.	.
2r	.	2.c	.	4A	.
.	.	.	.	4G	.
2AA	.	.	.	4A	.
.	.	4B	.	4B	.
=22	=22	=22	=22	=22	=22
4AA	2r	2A	1c]	1.c	1r
4GG	.	.	.	.	.
4AA	2E	4G	.	.	.
4BB	.	4F	.	.	.
1.C	4E	0E	0A	.	2r
.	4D	.	.	.	.
.	4E	.	.	4B	2e
.	4F	.	.	4A	.
.	4G	.	.	1c	4e
.	4F	.	.	.	4d
4BB	4G	.	.	.	4e
4AA	4A	.	.	.	4f
=23	=23	=23	=23	=23	=23
2GG	1B	1r	0G	2d	4g
.	.	.	.	.	4f
2G	.	.	.	2B	4g
.	.	.	.	.	4a
2E	2G	1r	.	1e	2b
2C	2A	.	.	.	1cc
1G	1B	2r	1r	1d	.
.	.	2G	.	.	2b
=24	=24	=24	=24	=24	=24
1C	1G	4c	2r	0c	0cc
.	.	4B	.	.	.
.	.	4c	2G	.	.
.	.	4d	.	.	.
2r	1r	2e	4c	.	.
.	.	.	4B	.	.
2F	.	2A	4c	.	.
.	.	.	4d	.	.
2G	1r	2B	1e	1r	1r
2A	.	2c	.	.	.
=25	=25	=25	=25	=25	=25
2F	0.r	2A	2d	0.r	0.r
2.G	.	2.B	2.e	.	.
4F	.	4A	4d	.	.
2E	.	1G	1c	.	.
1D	.	.	.	.	.
.	.	2F	2B	.	.
=26	=26	=26	=26	=26	=26
0C	2r	0G	1c	1e	1g
.	2c	.	.	.	.
.	2c	.	1r	2e	2g
.	2c	.	.	2e	2g
1r	4F	1r	1r	1f	1a
.	4G	.	.	.	.
.	4A	.	.	.	.
.	4B	.	.	.	.
=27	=27	=27	=27	=27	=27
0.r	1c	0.r	0.r	1e	0g
.	2B	.	.	2d	.
.	1c	.	.	1e	.
.	.	.	.	.	1a
.	4B	.	.	4d	.
.	4A	.	.	4c	.
=28	=28	=28	=28	=28	=28
0.r	2G	0.r	0.r	4d	1b
.	.	.	.	4e	.
.	2d	.	.	4f	.
.	.	.	.	4g	.
.	4c	.	.	2a	1.cc
.	4B	.	.	.	.
.	4A	.	.	1g	.
.	4G	.	.	.	.
.	1A	.	.	.	.
.	.	.	.	2f#i	4b
.	.	.	.	.	4a
=29	=29	=29	=29	=29	=29
0.r	2G	1r	1r	2.g	2b
.	2c	.	.	.	2e
.	.	.	.	8fL	.
.	.	.	.	8eJ	.
.	2B	2r	1r	2d	2f
.	4A	2E	.	1e	2g
.	4G	.	.	.	.
.	2A	2F	2r	.	2c
.	2G	2G	2B	2d	[2g
=30	=30	=30	=30	=30	=30
1r	2r	2C	2c	1e	4g]
.	.	.	.	.	4f
.	2E	1c	1e	.	2g
1r	2F	.	.	1r	2a
.	2G	2B	2d	.	2.g
2r	2C	1c	2e	1r	.
.	.	.	.	.	4f
2E	2G	.	[2c	.	[2e
=31	=31	=31	=31	=31	=31
2F	2A	1r	2c]	2r	4e]
.	.	.	.	.	4d
2G	2.G	.	2B	1g	4d
.	.	.	.	.	4c
2C	.	2r	1c	.	2e
.	4E	.	.	.	.
2AA	2A	2c	.	2f	2cc
2BB	1G	2B	2r	2f	2dd
2C	.	2G	2c	2e	[2cc
=32	=32	=32	=32	=32	=32
1FF	1F	1c	2A	1.f	4cc]
.	.	.	.	.	4b
.	.	.	2.c	.	4a
.	.	.	.	.	4g
1r	1r	2F	.	.	2a
.	.	.	4B	.	.
.	.	2.c	4A	4e	1g
.	.	.	4G	4d	.
1FF	1F	.	1A	2.c	.
.	.	4A	.	.	.
.	.	[2c	.	.	2f
.	.	.	.	4d	.
=33	=33	=33	=33	=33	=33
1.C	2E	2c]	[0.Gl	4e	[0.gl
.	.	.	.	4f	.
.	2C	4B	.	1e	.
.	.	4A	.	.	.
.	1D	1.G	.	.	.
2BB	.	.	.	1d	.
1C	1E	.	.	.	.
.	.	2A	.	2c	.
=34	=34	=34	=34	=34	=34
0.GGl	0.Dl	0.Gl	0.G]	0.dl	0.g]
=35||	=35||	=35||	=35||	=35||	=35||
*M2/1	*M2/1	*M2/1	*M2/1	*M2/1	*M2/1
*met(C|)	*met(C|)	*met(C|)	*met(C|)	*met(C|)	*met(C|)
!!section: Secunda pars: Quia concupivit
!!!OMD: Secunda pars: Quia concupivit
0r	0r	0r	0r	2.c	0r
.	.	.	.	4d	.
.	.	.	.	2e	.
.	.	.	.	[2f	.
=36	=36	=36	=36	=36	=36
0r	0r	0r	0r	2f]	0r
.	.	.	.	4e	.
.	.	.	.	4d	.
.	.	.	.	2e	.
.	.	.	.	2A	.
=37	=37	=37	=37	=37	=37
2.C	0r	0r	[0c	2.e	0r
4D	.	.	.	4f	.
2E	.	.	.	2g	.
[2F	.	.	.	[2a	.
=38	=38	=38	=38	=38	=38
2F]	0r	0r	0c]	2a]	0r
4E	.	.	.	4g	.
4D	.	.	.	4f	.
2E	.	.	.	4g	.
.	.	.	.	4f	.
2AA	.	.	.	4e	.
.	.	.	.	4d	.
=39	=39	=39	=39	=39	=39
2.E	0r	0r	1.B	[0e	0r
4F	.	.	.	.	.
2G	.	.	.	.	.
[2A	.	.	[2c	.	.
=40	=40	=40	=40	=40	=40
2A]	0r	0r	2c]	0e]	0r
4G	.	.	4B	.	.
4F	.	.	4A	.	.
2G	.	.	2B	.	.
2C	.	.	[2c	.	.
=41	=41	=41	=41	=41	=41
2.F	0r	0r	4c]	1A	0r
.	.	.	4A	.	.
.	.	.	2.d	.	.
4E	.	.	.	.	.
2D	.	.	.	2B	.
.	.	.	4B	.	.
2C	.	.	2e	[2c	.
=42	=42	=42	=42	=42	=42
1F	0r	0r	4e	4c]	0r
.	.	.	4d	4B	.
.	.	.	1d	1A	.
1E	.	.	.	.	.
.	.	.	2c#i	2G	.
=43	=43	=43	=43	=43	=43
[0D	0r	2.F	[0d	1A	0r
.	.	4G	.	.	.
.	.	2A	.	1r	.
.	.	[2B-X	.	.	.
=44	=44	=44	=44	=44	=44
0D]	0r	2B-]	0d]	0r	0r
.	.	4A	.	.	.
.	.	4G	.	.	.
.	.	2A	.	.	.
.	.	2D	.	.	.
=45	=45	=45	=45	=45	=45
0r	2.c	2.A	0r	0r	[0a
.	4d	4B	.	.	.
.	2e	2c	.	.	.
.	[2f	[2d	.	.	.
=46	=46	=46	=46	=46	=46
0r	2f]	2d]	0r	0r	0a]
.	4e	4c	.	.	.
.	4d	4B	.	.	.
.	2e	1c	.	.	.
.	2A	.	.	.	.
=47	=47	=47	=47	=47	=47
0r	2.B-i	2r	0r	0r	2.f
.	.	2d	.	.	.
.	8AL	.	.	.	4g
.	8GJ	.	.	.	.
.	2F	2d	.	.	2a
.	[2G	2d	.	.	[2b-X
=48	=48	=48	=48	=48	=48
0r	2G]	2e	0r	0r	2b-]
.	4F	2e	.	.	4a
.	4E	.	.	.	4g
.	[1D	2.f	.	.	2a
.	.	.	.	.	2d
.	.	4e	.	.	.
=49	=49	=49	=49	=49	=49
0r	1D]	4d	0r	0r	1f
.	.	4c	.	.	.
.	.	2.d	.	.	.
.	1r	.	.	.	2f
.	.	4c	.	.	.
.	.	4B	.	.	2f
.	.	4A	.	.	.
=50	=50	=50	=50	=50	=50
0r	1c	1e	0r	0r	2g
.	.	.	.	.	2g
.	2c	2A	.	.	[1a
.	2c	2F	.	.	.
=51	=51	=51	=51	=51	=51
0r	2d	2F	0r	0r	1a]
.	2d	2F	.	.	.
.	1e	2G	.	.	1r
.	.	[2A	.	.	.
=52	=52	=52	=52	=52	=52
0r	0A	2A]	0r	1c	1r
.	.	4G	.	.	.
.	.	4F	.	.	.
.	.	2c	.	2c	2r
.	.	2F	.	2c	2a
=53	=53	=53	=53	=53	=53
0r	0r	2F	0r	1d	2a
.	.	2F	.	.	2a
.	.	1G	.	1d	1b
=54	=54	=54	=54	=54	=54
0r	0r	1G	0r	0e	1b
.	.	[1A	.	.	[1cc
=55	=55	=55	=55	=55	=55
1r	1r	1A]	0c	1r	0cc]
1F	1A	1r	.	2r	.
.	.	.	.	2f	.
=56	=56	=56	=56	=56	=56
2F	2A	0r	0d	2f	0r
2F	2A	.	.	2f	.
1G	1B	.	.	1d	.
=57	=57	=57	=57	=57	=57
1G	1B	1r	0e	1g	0r
1A	1c	2r	.	1e	.
.	.	2A	.	.	.
=58	=58	=58	=58	=58	=58
2r	2r	4A	0c	2r	2r
.	.	4G	.	.	.
2F	2A	4A	.	2f	2a
.	.	4B	.	.	.
2F	2A	2c	.	2f	2a
2F	2A	2A	.	2f	2a
=59	=59	=59	=59	=59	=59
1G	4B	1.d	0B	1d	4g
.	4A	.	.	.	4f
.	4B	.	.	.	4g
.	4c	.	.	.	4a
1G	2d	.	.	[1g	2b
.	2d	2B	.	.	2b
=60	=60	=60	=60	=60	=60
0C	1c	2.e	0G	2g]	1cc
.	.	.	.	8gL	.
.	.	.	.	8f	.
.	.	4d	.	8e	.
.	.	.	.	8dJ	.
.	1C	2.c	.	1e	[1cc
.	.	4B	.	.	.
=61	=61	=61	=61	=61	=61
1.F	1r	1c	0A	0f	2cc]
.	.	.	.	.	2b
.	[1D	[1d	.	.	2a
2E	.	.	.	.	2g
=62	=62	=62	=62	=62	=62
2D	1D]	1d]	1A	2r	0a
4C	.	.	.	1f	.
4BB	.	.	.	.	.
1AA	1E	1c	[1A	.	.
.	.	.	.	[2e	.
=63	=63	=63	=63	=63	=63
0D	0F	0d	2A]	2e]	1a
.	.	.	2G	4d	.
.	.	.	.	4c	.
.	.	.	2.A	1d	2r
.	.	.	.	.	[2a
.	.	.	4B	.	.
=64	=64	=64	=64	=64	=64
1C	1.E	1G	0c	[0e	2a]
.	.	.	.	.	2g
1AA	.	1e	.	.	4a
.	.	.	.	.	4b
.	2F	.	.	.	4cc
.	.	.	.	.	4a
=65	=65	=65	=65	=65	=65
0E	0G	2e	0B	0e]	2b
.	.	4d	.	.	1a
.	.	4c	.	.	.
.	.	1B	.	.	.
.	.	.	.	.	2g#i
=66	=66	=66	=66	=66	=66
[0AA	1E	2.c	[0A	2.e	[0a
.	.	4B	.	8dL	.
.	.	.	.	8eJ	.
.	2r	4A	.	2f	.
.	.	4G	.	.	.
.	2A	[2A	.	[2e	.
=67	=67	=67	=67	=67	=67
0AA]	2c	4A]	0A_	4e]	0a_
.	.	4G	.	4d	.
.	2d	2F	.	1d	.
.	1e	1E	.	.	.
.	.	.	.	2c#i	.
=68	=68	=68	=68	=68	=68
1r	2r	0D	0A]	0d	0a_
.	2f	.	.	.	.
2r	2d	.	.	.	.
2F	[2f	.	.	.	.
=69	=69	=69	=69	=69	=69
2D	2f]	0A	0r	0r	0a]
1F	4e	.	.	.	.
.	4d	.	.	.	.
.	2c	.	.	.	.
4E	2A	.	.	.	.
4D	.	.	.	.	.
=70	=70	=70	=70	=70	=70
1C	4A	0r	2r	0r	0r
.	4G	.	.	.	.
.	2E	.	2c	.	.
2r	2F	.	2A	.	.
2C	2E	.	[2c	.	.
=71	=71	=71	=71	=71	=71
2AA	2r	0r	2c]	0r	0r
1C	2G	.	4B	.	.
.	.	.	4A	.	.
.	2E	.	2G	.	.
4BB	[2G	.	4E	.	.
4AA	.	.	4F	.	.
=72	=72	=72	=72	=72	=72
2.GG	2G]	0r	4G	1r	0r
.	.	.	4A	.	.
.	4F	.	4B	.	.
4AA	4E	.	4c	.	.
4BB	2D	.	4d	2r	.
4C	.	.	4c	.	.
[2D	[2F	.	4B	2f	.
.	.	.	4A	.	.
=73	=73	=73	=73	=73	=73
4D]	4F]	0r	4B	2d	0r
4C	4E	.	4A	.	.
4BB	4D	.	1A	1f	.
4AA	4C	.	.	.	.
1BB	1D	.	.	.	.
.	.	.	2G#i	4e	.
.	.	.	.	4d	.
=74	=74	=74	=74	=74	=74
0AA	0E	1r	0A	0c	2r
.	.	.	.	.	2cc
.	.	2r	.	.	2a
.	.	2c	.	.	[2cc
=75	=75	=75	=75	=75	=75
0r	0r	2A	0r	2r	2cc]
.	.	1c	.	2g	4b
.	.	.	.	.	4a
.	.	.	.	2e	2.g
.	.	4B	.	[2g	.
.	.	4A	.	.	4a
=76	=76	=76	=76	=76	=76
0r	0r	2.G	0r	2g]	2b
.	.	.	.	4f	2cc
.	.	4A	.	4e	.
.	.	4B	.	4d	[1dd
.	.	4c	.	4c	.
.	.	[2d	.	4B	.
.	.	.	.	4A	.
=77	=77	=77	=77	=77	=77
0r	0r	4d]	0r	2G	1dd]
.	.	4c	.	.	.
.	.	2B	.	1g	.
.	.	1A	.	.	1cc
.	.	.	.	2f#i	.
=78	=78	=78	=78	=78	=78
0r	0r	2.G	0r	2g	1b
.	.	.	.	2.G	.
.	.	4F	.	.	.
.	.	4E	.	.	[1g
.	.	4D	.	4A	.
.	.	2G	.	4B	.
.	.	.	.	4c	.
=79	=79	=79	=79	=79	=79
0r	0r	4G	0r	2d	1g]
.	.	4F	.	.	.
.	.	2E	.	1c	.
.	.	1D	.	.	1f
.	.	.	.	2B	.
=80	=80	=80	=80	=80	=80
0r	2r	2C	0r	1c	1e
.	2C	4G	.	.	.
.	.	4A	.	.	.
.	2.G	4B	.	1r	2d
.	.	4c	.	.	.
.	.	[2d	.	.	2g
.	4A	.	.	.	.
=81	=81	=81	=81	=81	=81
0r	2B	4d]	0r	0r	4f
.	.	4c	.	.	4e
.	2c	1c	.	.	4d
.	.	.	.	.	4c
.	1G	.	.	.	1d
.	.	2B	.	.	.
=82||	=82||	=82||	=82||	=82||	=82||
*M3/2	*M3/2	*M3/2	*M3/2	*M3/2	*M3/2
*met(3)	*met(3)	*met(3)	*met(3)	*met(3)	*met(3)
*Xtuplet	*Xtuplet	*Xtuplet	*Xtuplet	*Xtuplet	*Xtuplet
3%2F	3%2c	3%4c	3%2A	3%2r	3%4c
3%2F	3%2c	.	3%2A	3%2r	.
3%2E	3%2c	3%2r	3%2G	3%2r	3%2r
=83	=83	=83	=83	=83	=83
3%4F	3%4A	3F	3%4c	3%2f	3%2a
.	.	3G	.	.	.
.	.	3A	.	3%2f	3%2a
.	.	3B	.	.	.
3%2r	3%2r	3%2c	3%2r	3%2e	3%2g
=84	=84	=84	=84	=84	=84
3%2F	3%2c	3%2F	3%2A	3%4f	3%4cc
3%2F	3%2c	3%2r	3%2A	.	.
3%2E	3%2c	3%2r	3%2G	3%2r	3%2r
=85	=85	=85	=85	=85	=85
3%4F	3%4A	3F	3%4c	3%2f	3%2a
.	.	3G	.	.	.
.	.	3A	.	3%2f	3%2a
.	.	3B	.	.	.
3%2r	3%2r	3%2c	3%2r	3%2e	3%2g
=86	=86	=86	=86	=86	=86
3FF	3%2c	3%2F	3%2A	3%4f	3%4cc
3GG	.	.	.	.	.
3AA	3%2c	3%2.C	3%2A	.	.
3BB	.	.	.	.	.
3%2C	3%2c	.	3%2G	3%2r	3%2r
.	.	3D	.	.	.
=87	=87	=87	=87	=87	=87
3AA	3%4c	3%2.E	3%4c	3%2e	3%2a
3BB	.	.	.	.	.
3C	.	.	.	3%2e	3%2a
3D	.	3F	.	.	.
3%2E	3%2r	3%2G	3%2B	3%2e	3%2g
=88	=88	=88	=88	=88	=88
3%4AA	3%2c	3%2E	3%2.A	3%4.e	3%2.cc
.	3%2c	3%2E	.	.	.
.	.	.	3B	.	3b
3%2AA	3%2c	3%2E	3%2c	.	3a
.	.	.	.	.	3g
=89	=89	=89	=89	=89	=89
3%4D	3%2.A	3%4F	3%2.d	3%2r	3%2.f
.	.	.	.	3%4d	.
.	3G	.	3c	.	3e
3%2D	3%2F	3%2r	3B	.	3f
.	.	.	3A	.	3g
=90	=90	=90	=90	=90	=90
3%2C	3%2E	3%2c	3%2c	3%2e	3%4a
3%2D	3%2F	3%2f	3%4B	3%2d	.
3%2E	3%2G	3%2e	.	3%2B	3%2g
=91	=91	=91	=91	=91	=91
3%4AA	3%2.E	[3%4.c	3%4A	3%4.e	[3%4.cc
.	3D	.	.	.	.
3%2r	3%2C	.	3%2r	.	.
=92	=92	=92	=92	=92	=92
3%2F	3%2c	3%4c]	3%2A	0r	3%4cc]
3%2F	3%2c	.	3%2A	.	.
3%2E	3%2c	3%2r	3%2G	.	3%2r
=93	=93	=93	=93	=93	=93
3%4F	3%4A	3F	3%4c	3%2f	3%2a
.	.	3G	.	.	.
.	.	3A	.	3%2f	3%2a
.	.	3B	.	.	.
3%2r	3%2r	3%2c	3%2r	3%2e	3%2g
=94	=94	=94	=94	=94	=94
3%2F	3%2c	3%2F	3%2A	3%4f	3%4cc
3%2F	3%2c	3%2r	3%2A	.	.
3%2E	3%2c	3%2r	3%2G	3%2r	3%2r
=95	=95	=95	=95	=95	=95
3%4F	3%4A	3F	3%4c	3%2f	3%2a
.	.	3G	.	.	.
.	.	3A	.	3%2f	3%2a
.	.	3B	.	.	.
3%2r	3%2r	3%2c	3%2r	3%2e	3%2g
=96	=96	=96	=96	=96	=96
3FF	3%2c	3%2F	3%2A	3%4f	3%4cc
3GG	.	.	.	.	.
3AA	3%2c	3%2.C	3%2A	.	.
3BB	.	.	.	.	.
3%2C	3%2c	.	3%2G	3%2r	3%2r
.	.	3D	.	.	.
=97	=97	=97	=97	=97	=97
3AA	3%4c	3%2.E	3%4c	3%2e	3%2a
3BB	.	.	.	.	.
3C	.	.	.	3%2e	3%2a
3D	.	3F	.	.	.
3%2E	3%2r	3%2G	3%2B	3%2e	3%2g
=98	=98	=98	=98	=98	=98
3%4AA	3%2c	3%2E	3%2.A	3%4.e	3%2.cc
.	3%2c	3%2E	.	.	.
.	.	.	3B	.	3b
3%2AA	3%2c	3%2E	3%2c	.	3a
.	.	.	.	.	3g
=99	=99	=99	=99	=99	=99
3%4D	3%2.A	3%4F	3%2.d	3%2r	3%2.f
.	.	.	.	3%4d	.
.	3G	.	3c	.	3e
3%2D	3%2F	3%2r	3B	.	3f
.	.	.	3A	.	3g
=100	=100	=100	=100	=100	=100
3%2C	3%2E	3%2c	3%2c	3%2e	3%4a
3%2D	3%2F	3%2f	3%4B	3%2d	.
3%2E	3%2G	3%2e	.	3%2B	3%2g
=101	=101	=101	=101	=101	=101
3%2AA	3%2E	3%2c	[0Al	3%2e	[0ccl
3%4D	3%2D	3F	.	3%2.f	.
.	.	3G	.	.	.
.	[3%2E	3A	.	.	.
.	.	3B	.	3e	.
=102	=102	=102	=102	=102	=102
3%2C	3%2E]	3%2c	0A_	3%4e	0cc_
3%4D	3%4F	3%2.A	.	.	.
.	.	.	.	3%2d	.
.	.	3B	.	.	.
=103	=103	=103	=103	=103	=103
0AAl	0El	0cl	0A]	0el	0cc]
==	==	==	==	==	==
*-	*-	*-	*-	*-	*-
!!!system-decoration: s1,s2,s3,s4,s5,s6
!!!RDF**kern: i = editorial accidental
!!!RDF**kern: l = terminal long
!!!ENC: Janosch Umbreit
!!!END: 2026/02/06
!!!EED: Benjamin Ory
!!!EEV: 2026/02/10
!!!YEC: Copyright 2026 Benjamin Ory, All Rights Reserved
!!!ONB: Translated from MusicXML on 2026/02/10
